X: 425
T: Bir Şûh Gülüşün
C: Selahattin İçli
O: Turkey
F: http://compmusic.upf.edu/node/140
N: karcigar--sarki--yuruksemai--bir_suh--selahattin_icli
N: makam= karcigar
N: form= sarki
N: usul= yuruksemai = 6/8
M: 6/8
L: 1/16
K: C _2/4B _3/4e ^3/4f 
Q: 1/4=81
%%MIDI tuningsystem comma53
c4d4 d4d4 d6_1/4e2  | d2c4B2 B2A2c2BA A8  | \
w:  Bir  şûh  gü lü şün   |  at *  *  tı  *  be *  *  ni   | 
g4f2ed d4d2d2 d2cBf2ed  | 
w:  bil  *  *  *  *  bu  ce fâ  | 
d8 c3BB2BA A8  | c4d4 d4d4 d6_1/4e2  | \
w:  ya   SAZ  |  Bir  şûh  gü lü şün   | 
d2c4B2 B2A2c2BA A8  | 
w:  at *  *  tı  *  be *  *  ni   | 
g4f2ed d4d2d2 d2cBf2ed  | d12agfg a8  | \
w:  bil  *  *  *  *  bu  ce fâ  |  ya   SAZ  | 
g4a4 a3gabc'd' c'_bagf_2/4e_3/4ed  | 
w:  Bir  in ce  *  du *  *  *  dak   | 
d8 f4g4 a8  | _b6ag f2edd2d2 d2eddccB  | \
w:  kıv rı lı şı   |  ça *  *  *  *  *  re  de vâ  | 
c8 =f4=efge f8  | 
w:  ya   SAZ  | 
=f4f4 f4f2_2/4e2 _3/4e2d6  | f2ga_bag2 f2e2e2d2 d2edcBBA  | 
w:  Bir  in ce  du *  dak   |  kıv *  *  *  *  *  rı *  lı *  şı   | 
e6dc c2B2e2dc c3BBA{c}BA  | A8 d4_bagf g8  | 
w:  ça *  *  *  *  re  de *  vâ  |  ya   SAZ  | 
f4g4 g4g4 g6a2  | g2=f4_1/4e2 g4f2e^d e6z2  | \
w:  Bak  göz le ri me   |  kal *  *  bi me  *  *  gir   | 
g3=f_1/4e2^d2 e2^3/4f2g2g2 a6ag  | 
w:  sî *  *  *  *  *  ne mi  in  | 
g8 a3gagfg a8  | g4a4 a4a4 e6d2  | f2ga_bag2 g4f2ed d8  | 
w:  let   SAZ  |  Bak  göz le ri me   |  kal *  *  *  *  *  bi me  *  *  gir   | 
g4f2ed d4d2_1/4e2 d2cBf2_3/4ed  | \
w:  sî *  *  *  *  ne mi  in  | 
d12agfg a8  | g4a4 a3gabc'd' c'_bagf_2/4e_3/4ed  | 
w:  let   SAZ  |  Bir  in ce  *  du *  *  *  dak   | 
d8 f4g4 a8  | _b6ag f2edd2d2 d2eddccB  | \
w:  kıv rı lı şı   |  ça *  *  *  *  *  re  de vâ  | 
c8 =f4=efge f8  | 
w:  ya   SAZ  | 
=f4f4 f4f2_2/4e2 _3/4e2d6  | f2ga_bag2 f2e2e2d2 d2edcBBA  | 
w:  Bir  in ce  du *  dak   |  kıv *  *  *  *  *  rı *  lı *  şı   | 
e6dc c2B2e2dc c3BBA{c}BA  | A8 |
w:  ça *  *  *  *  re  de *  vâ  |  ya    | 


